X:84
T:Los set goyts
C:Llibre Vermell de Montserrat
R:Livre
O:XIVe
M:2/4
L:1/8
K:C
%%continueall 1
%%staves [1 2]
V:1
c2BA | B2c2 | d2cB | A4 | BA GF | E2D2 | ED EF | 
w:Los set_ goyts re-comp-ta_rem et,__ xan-
w:Ver-ge~:_ fas a-nams del_ part, pu__ra, e sens fal__li-
E4 | c2BA | B2c2 | d2cB | A4 | BA GF | E2D2 |
w:tant, hu-mil_ment sa-lu-da_rem la__ dol-ce ver-
w:ment~; en lo_ part, e prés lo_ part sens__ ne-gum cor-
ED EF | E2D2 | G4 | G2A2 | F2E2 | FE FG | A2E2 |
w:ge__ Ma-ri-a. A-ve Ma-ri-a, gra_ti-a ple-na,
w:rum___pi-ment~: lo fill de Dé-us, Vir_ge_ pi-a,
G4 | G2A2 | F2ED | ED EC | D2D2 || G4 | G2A2 | F2E2 |
w:Do-mi-nus te-cum,_ Vir_go se-re-na. A-ve Ma-ri-a,
w:de_ vos nas-que_ ve_ra_ment._ A-ve Ma-ri-a,
FE FG | A2E2 | G4 | G2A2 | F2 ED | ED EC| D2D2 :|
w:gra_ti-a ple-na, Do-mi-nus te-cum, Vir_go se-re-na.
w:gra_ti-a ple-na, Do-mi-nus te-cum, Vir_go se-re-na.
V:2
A4 | A4 | d4 | d4 | A4 | A4 | A4 |
A4 | A4 | A4 | d4 | d4 | A4 | A4 | 
A4 | A4 | G4 | G4 | A4 | A4 | A4 | 
G4 | G4 | A4 | A4 | d2d2 || G4 | G4 | A4 |
A4 | A4 | G4 | G4 | A4 | A4 | d2d2 :|




%%header "$P0	 $IR 	$P1"
%%footer $D - Éditions Galouvielle - 2009 - À usage librement privé dans le cadre familial

